!!!!SEGMENT: pl-sa--79-a-ii-19--018_siwinski-andrzej--missa-pro-defunctis-benedictus.krn
!!!cenid: 17xx:310
!!!COM: Siwiński, Andrzej
!!!COM-rismID: pe41011487
!!!CDT: <1725->1725
!!!CNT:
!!!OPR: Missa pro defunctis
!!!OTL: Benedictus
!!!OMV: 018
!!!PDT: 1726
!!!AGN: Sacred; Mass
!!!SMS-siglum: PL-SA
!!!SMS-shelfmark: 79/A II 19
!!!SMS-shelfwork: 001-018 M
!!!NIFC-rismSourceID: 1001070177
!!!NIFC-islandoraID:
!!!URL-pdf-islandora:
!!!URL-scan: https://bc.bdsandomierz.pl/dlibra/publication/1356/edition/1324/content @EN{Scan in the Sandomierz Diocese Digital Library} @PL{Skany w portalu Cyfrowa Biblioteka Diecezjalna w Sandomierzu}
!!!ONB-nifc: Uwaga: części Mszy: Requiem, Kyrie, Dies Irae, Quantus tremor, Tuba mirrum, Mors, Quid sum miser,
!!!AIN: 1 alto 1 empty 2 oboe 1 organ 1 tenor 2 violn 1 vox
!!!key:
**kern	**fba	**kern	**kern	**kern	**kern	**kern	**kern	**text	**kern	**kern
*part9	*	*part8	*part7	*part6	*part5	*part4	*part3	*part3	*part2	*part1
*staff9	*	*staff8	*staff7	*staff6	*staff5	*staff4	*staff3	*staff3	*staff2	*staff1
*Iorgan	*	*Ivioln	*Ivioln	*Iempty	*Itenor	*Ialto	*Ivox	*	*Ioboe	*Ioboe
*I"Organo	*	*I"Violino. 2do	*I"Violino 1mo	*I"Baſso vocali	*I"Tenore	*I"Alto.	*I"Canto.	*	*I"Hobois 2do.	*I"Hautbo. 1mo.
*I'org	*	*I'Vl 2	*I'Vl 1	*I'B	*I'T	*I'A	*I'S	*	*I'ob 1	*I'ob 2
*clefF4	*	*clefG2	*clefG2	*clefF4	*clefC4	*clefC3	*clefC1	*	*clefG2	*clefG2
*k[b-e-]	*	*k[b-e-]	*k[b-e-]	*k[b-e-]	*k[b-e-]	*k[b-e-]	*k[b-e-]	*	*k[b-e-]	*k[b-e-]
*g:	*	*g:	*g:	*g:	*g:	*g:	*g:	*	*g:	*g:
*M2/2	*	*M2/2	*M2/2	*M2/2	*M2/2	*M2/2	*M2/2	*	*M2/2	*M2/2
*met(c|)	*	*met(c|)	*met(c|)	*met(c|)	*met(c|)	*met(c|)	*met(c|)	*	*met(c|)	*met(c|)
=1	=1	=1	=1	=1	=1	=1	=1	=1	=1	=1
!LO:TX:i:a:t=Solo	!	!	!	!LO:TX:a:t=P:problem=brak nazwy głosu na karcie. Nazwa wzieta z karty tytułowej	!LO:TX:a:t=P:problem=brak nazwy głosu na karcie. Nazwa wzieta z karty tytułowej	!	!LO:TX:a:t=P::problem=znaki przykluczowe&colon;b-, ee-	!	!	!
!LO:TX:i:b:t=Benedictus&colon; Canto solo	!	!	!	!	!	!	!	!	!	!
!	!	!LO:TX:a:t=P:problem=napis na pięciolini	!LO:TX:a:t=P:problem=napis na pięciolini	!LO:TX:a:t=P:problem=napis na pięciolini	!LO:TX:a:t=P:problem=napis na pięciolinii	!LO:TX:a:t=P:problem=napis na pięciolinii	!	!	!LO:TX:a:t=P:problem=napis na pięciolinii	!LO:TX:a:t=P:problem=napis na pięciolinii
!LO:TX:a:t=P:problem=mixed beam	!	!LO:TX:i:a:t=Benedictus Tacet\nOſanna dacapo	!LO:TX:a:i:t=Benedictus Tacet\n OSsanna DaCapo	!LO:TX:i:a:t=Benedict(us)\nTacet	!LO:TX:a:i:t=Benedictus\nTacet Osanna\n Da capo	!LO:TX:i:a:t=Benedictus Tacet. Canto\nOsanna Siplacet. Repete.	!LO:TX:a:i:t=Solo	!	!LO:TX:a:i:t=Benedictus\nTacet	!LO:TX:a:i:t=Benedictus\nTacet. Canto
8GG/L	.	1ryy	1ryy	1ryy	1ryy	1ryy	4r	.	1ryy	1ryy
8G\	.	.	.	.	.	.	.	.	.	.
8F#X\	X 6	.	.	.	.	.	8dd\	Be-	.	.
8D\J	.	.	.	.	.	.	8dd\	-ne-	.	.
8E-/L	.	.	.	.	.	.	4g/	-di-	.	.
8D/	.	.	.	.	.	.	.	.	.	.
8E-/	.	.	.	.	.	.	8g/	-ct(us)	.	.
8C/J	.	.	.	.	.	.	8g/	qui	.	.
=2	=2	=2	=2	=2	=2	=2	=2	=2	=2	=2
8D\L	.	1ryy	1ryy	1ryy	1ryy	1ryy	(8a\L	ve-	1ryy	1ryy
8G\	.	.	.	.	.	.	8b-\J)	.	.	.
8A\	.	.	.	.	.	.	8cc\	-nit	.	.
8F#X\J	X 6	.	.	.	.	.	8dd\	qui	.	.
8G\L	.	.	.	.	.	.	8b-\	ve-	.	.
8A\	.	.	.	.	.	.	8g/	-nit	.	.
8Bn\	X 6	.	.	.	.	.	8dd\	Be-	.	.
8G\J	.	.	.	.	.	.	8dd\	-ne	.	.
=3	=3	=3	=3	=3	=3	=3	=3	=3	=3	=3
!LO:TX:a:t=P:problem=mixed beam	!	!	!	!	!	!	!	!	!	!
8c\L	X 6	1ryy	1ryy	1ryy	1ryy	1ryy	(>8ee-\L	dic-	1ryy	1ryy
8F\	X 5	.	.	.	.	.	16dd\)	.	.	.
.	.	.	.	.	.	.	16cc\J	.	.	.
8G\	.	.	.	.	.	.	8bn\	-t(us)	.	.
.	X 4	.	.	.	.	.	.	.	.	.
8GG/J	X 3	.	.	.	.	.	8b\	qui	.	.
!LO:TX:a:t=P:problem=mixed beam	!	!	!	!	!	!	!	!	!	!
8C/L	.	.	.	.	.	.	4cc\	ve-	.	.
8c\	.	.	.	.	.	.	.	.	.	.
8Bn\	X 6	.	.	.	.	.	8dd\	-nit	.	.
8G\J	.	.	.	.	.	.	8dd\	in	.	.
=4	=4	=4	=4	=4	=4	=4	=4	=4	=4	=4
8r	.	1ryy	1ryy	1ryy	1ryy	1ryy	8.ee-\	no-	1ryy	1ryy
8c\L	.	.	.	.	.	.	.	.	.	.
.	.	.	.	.	.	.	16ee-\	-mi-	.	.
8Bn\	X 6	.	.	.	.	.	8dd\	-ne	.	.
8G\J	.	.	.	.	.	.	8gg\	in	.	.
!LO:TX:a:t=P:problem=mixed beam	!	!	!	!	!	!	!	!	!	!
8C\L	X 6|	.	.	.	.	.	8ee-\	no-	.	.
8F\	X 5|	.	.	.	.	.	16dd\	-mi-	.	.
.	.	.	.	.	.	.	16cc\	-ne	.	.
8G\	.	.	.	.	.	.	8.bnt>\	Do-	.	.
8GG/J	X 4	.	.	.	.	.	.	.	.	.
.	X 3	.	.	.	.	.	16b\	-mi-	.	.
!	!	!	!	!	!	!	!LO:LB:g=original	!	!	!
=5	=5	=5	=5	=5	=5	=5	=5	=5	=5	=5
8C/L	.	1ryy	1ryy	1ryy	1ryy	1ryy	4cc\	-ni	1ryy	1ryy
8D/	.	.	.	.	.	.	.	.	.	.
8E-/	.	.	.	.	.	.	8gg\	Be-	.	.
8C/J	.	.	.	.	.	.	8cc\	-ne-	.	.
8GG/L	.	.	.	.	.	.	4bn\	-di-	.	.
8AA/	.	.	.	.	.	.	.	.	.	.
8BBn/	.	.	.	.	.	.	8b\	-t(us)	.	.
8GG/J	.	.	.	.	.	.	8b\	qui	.	.
=6	=6	=6	=6	=6	=6	=6	=6	=6	=6	=6
8C\L	.	1ryy	1ryy	1ryy	1ryy	1ryy	8cc\	ve-	1ryy	1ryy
8D\	.	.	.	.	.	.	8cc\	-nit	.	.
8E-\	.	.	.	.	.	.	8r	.	.	.
8G\J	X 6	.	.	.	.	.	8b-X\	in	.	.
!LO:LB:g=original	!	!	!	!	!	!	!	!	!	!
8A-X\L	.	.	.	.	.	.	8.cc\	no-	.	.
8A-\	.	.	.	.	.	.	.	.	.	.
.	.	.	.	.	.	.	16cc\	-mi-	.	.
8G\	.	.	.	.	.	.	8b-\	-ne	.	.
8G\J	.	.	.	.	.	.	8b-\	in	.	.
=7	=7	=7	=7	=7	=7	=7	=7	=7	=7	=7
8F\L	.	1ryy	1ryy	1ryy	1ryy	1ryy	8.a-X\	no-	1ryy	1ryy
8F\	.	.	.	.	.	.	.	.	.	.
.	.	.	.	.	.	.	16a-\	-mi-	.	.
8E-\	.	.	.	.	.	.	8g\	-ne	.	.
8G\J	X 6	.	.	.	.	.	8b-\	in	.	.
!LO:TX:a:t=P:problem=mixed beam	!	!	!	!	!	!	!	!	!	!
8A-X\L	.	.	.	.	.	.	(>16cc\L	no-	.	.
.	.	.	.	.	.	.	16dd\)J	.	.	.
8E-\	.	.	.	.	.	.	16ee-\	-mi-	.	.
.	.	.	.	.	.	.	16ff\	-ne	.	.
8B-\	.	.	.	.	.	.	8.dd\	Do-	.	.
8BB-/J	.	.	.	.	.	.	.	.	.	.
.	.	.	.	.	.	.	16dd\	-mi-	.	.
=8	=8	=8	=8	=8	=8	=8	=8	=8	=8	=8
!LO:TX:a:t=P:problem=mixed beam	!	!	!	!	!	!	!	!	!	!
8EE-/L	.	1ryy	1ryy	1ryy	1ryy	1ryy	4ee-\	-ni	1ryy	1ryy
8E-\	.	.	.	.	.	.	.	.	.	.
8D\	X 6	.	.	.	.	.	8b-\	Be-	.	.
8BB-\J	.	.	.	.	.	.	8b-\	-ne-	.	.
8C/L	.	.	.	.	.	.	4e-/	-di-	.	.
8BB-/	.	.	.	.	.	.	.	.	.	.
8C/	.	.	.	.	.	.	8e-/	-t(us)	.	.
8AA-X/J	.	.	.	.	.	.	8e-/	qui	.	.
=9	=9	=9	=9	=9	=9	=9	=9	=9	=9	=9
8BB-/L	.	1ryy	1ryy	1ryy	1ryy	1ryy	(<8f/L	ve-	1ryy	1ryy
8E-/	.	.	.	.	.	.	8g/)J	.	.	.
8F/	.	.	.	.	.	.	8a-X/	-nit	.	.
!	!	!	!	!	!	!	!LO:LB:g=original	!	!	!
8D/J	X 6	.	.	.	.	.	8b-\	qui	.	.
8E-/L	.	.	.	.	.	.	8g/	ve-	.	.
8D/	.	.	.	.	.	.	8e-/	-nit	.	.
8C/	.	.	.	.	.	.	8r	.	.	.
8BB-/J	.	.	.	.	.	.	8b-\	qui	.	.
=10	=10	=10	=10	=10	=10	=10	=10	=10	=10	=10
8C/L	.	1ryy	1ryy	1ryy	1ryy	1ryy	(>8ee-\L	ve-	1ryy	1ryy
8BB-/	.	.	.	.	.	.	8dd\)J	.	.	.
8AA/	X 6	.	.	.	.	.	8cc\	-nit	.	.
8FF/J	.	.	.	.	.	.	8ff\	in	.	.
!LO:TX:a:t=P:problem=mixed beam	!	!	!	!	!	!	!	!	!	!
8BB-\L	.	.	.	.	.	.	8dd\	no-	.	.
8E-\	.	.	.	.	.	.	16cc\	-mi-	.	.
.	.	.	.	.	.	.	16b-\	-ne	.	.
8F\	.	.	.	.	.	.	8.a\	Do-	.	.
8FF/J	X 4	.	.	.	.	.	.	.	.	.
.	X 3	.	.	.	.	.	16a\	-mi-	.	.
=11	=11	=11	=11	=11	=11	=11	=11	=11	=11	=11
!LO:TX:a:t=P:problem=mixed beam	!	!	!	!	!	!	!	!	!	!
8BB-/L	.	1ryy	1ryy	1ryy	1ryy	1ryy	4b-\	-ni	1ryy	1ryy
8B-\	.	.	.	.	.	.	.	.	.	.
8A\	X 6	.	.	.	.	.	8ff\	Be-	.	.
8F\J	.	.	.	.	.	.	8ff\	-ne-	.	.
8G\L	.	.	.	.	.	.	4b-\	-dic-	.	.
8F\	.	.	.	.	.	.	.	.	.	.
8G\	.	.	.	.	.	.	8b-\	-t(us)	.	.
8E-\J	X 5	.	.	.	.	.	8b-\	qui	.	.
=12	=12	=12	=12	=12	=12	=12	=12	=12	=12	=12
8F\L	.	1ryy	1ryy	1ryy	1ryy	1ryy	(>8cc\L	ve-	1ryy	1ryy
8B-\	.	.	.	.	.	.	8dd\)J	.	.	.
8d\	.	.	.	.	.	.	8ee-\	-ni	.	.
8A\J	X 6	.	.	.	.	.	8ff\	qui	.	.
!LO:LB:g=original	!	!	!	!	!	!	!	!	!	!
!LO:TX:a:t=P:problem=mixed beam	!	!	!	!	!	!	!	!	!	!
8B-\L	.	.	.	.	.	.	8dd\	ve-	.	.
8BB-/	.	.	.	.	.	.	8b-\	-nit	.	.
8G\	.	.	.	.	.	.	8r	.	.	.
8F#X\J	X 6	.	.	.	.	.	8dd\	qui	.	.
=13	=13	=13	=13	=13	=13	=13	=13	=13	=13	=13
8G\L	.	1ryy	1ryy	1ryy	1ryy	1ryy	8dd\L	ve-	1ryy	1ryy
8F\	.	.	.	.	.	.	(>16cc\	.	.	.
.	.	.	.	.	.	.	16b-\J)	.	.	.
8E-\	X 6	.	.	.	.	.	8cc\	-nit	.	.
8C\J	.	.	.	.	.	.	8cc\	qui	.	.
8F\L	.	.	.	.	.	.	8cc\L	ve-	.	.
8E-\	.	.	.	.	.	.	(>16b-\	.	.	.
.	.	.	.	.	.	.	16a\J)	.	.	.
8D\	.	.	.	.	.	.	8b-\	-nit	.	.
8BB-\J	.	.	.	.	.	.	8dd\	in	.	.
!	!	!	!	!	!	!	!LO:LB:g=original	!	!	!
=14	=14	=14	=14	=14	=14	=14	=14	=14	=14	=14
8E-/L	.	1ryy	1ryy	1ryy	1ryy	1ryy	8cc\	no-	1ryy	1ryy
8C/	.	.	.	.	.	.	16dd\	-mi-	.	.
.	.	.	.	.	.	.	16ee-\	-ne	.	.
8D/	.	.	.	.	.	.	8.a\	Do-	.	.
8DD/J	X 4	.	.	.	.	.	.	.	.	.
.	X 3	.	.	.	.	.	16g/	-mi-	.	.
!LO:TX:a:t=P:problem=mixed beam	!	!	!	!	!	!	!	!	!	!
8GG/L	.	.	.	.	.	.	4g/	-ni	.	.
8G\	.	.	.	.	.	.	.	.	.	.
8F#X\	X 6	.	.	.	.	.	8r	.	.	.
8D\J	.	.	.	.	.	.	8dd\	qui	.	.
=15	=15	=15	=15	=15	=15	=15	=15	=15	=15	=15
8G\L	.	1ryy	1ryy	1ryy	1ryy	1ryy	8dd\L	ve-	1ryy	1ryy
8F\	.	.	.	.	.	.	16cc\	.	.	.
.	.	.	.	.	.	.	16b-\J	.	.	.
8E-\	X 6	.	.	.	.	.	8cc\	-nit	.	.
8C\J	.	.	.	.	.	.	8cc\	qui	.	.
8F\L	.	.	.	.	.	.	8cc\L	ve-	.	.
8E-\J	.	.	.	.	.	.	16b-\	.	.	.
.	.	.	.	.	.	.	16a\J	.	.	.
8D/L	.	.	.	.	.	.	8b-\	-nit	.	.
8BB-/J	.	.	.	.	.	.	8dd\	in	.	.
=16	=16	=16	=16	=16	=16	=16	=16	=16	=16	=16
8E-/L	.	1ryy	1ryy	1ryy	1ryy	1ryy	8cc\	no-	1ryy	1ryy
8C/	.	.	.	.	.	.	16dd\	-mi-	.	.
.	.	.	.	.	.	.	16ee-\	-ne	.	.
8D/	.	.	.	.	.	.	8.a\	Do-	.	.
8DD/J	.	.	.	.	.	.	.	.	.	.
.	.	.	.	.	.	.	16g\	-mi-	.	.
4GG/	.	.	.	.	.	.	4g\	-ni	.	.
4r	.	.	.	.	.	.	4r	.	.	.
!LO:TX:a:t=O Sanna\n Da Capo:problem=napis na pięciolinii za kreską	!	!	!	!	!	!	!LO:TX:a:t=O Sanna Siplacet\n Repete Da Capo:problem=napis na pięciolinii za kreską	!	!	!
==	==	==	==	==	==	==	==	==	==	==
*-	*-	*-	*-	*-	*-	*-	*-	*-	*-	*-
!!!system-decoration: s1,s2,s3,s4,s5,s6,s7,s8,s9
!!!RDF**kern: > = above
!!!RDF**kern: < = below
!!!EED: Mateusz Mrugas
!!!EEV: 2020-12-05
!!!ENC: Marcin Jachim
!!!END: 2020-04-29
!!!YEC: Copyright 2022 Narodowy Instytut Fryderyka Chopina (https://polishscores.org)
!!!YEM: Licence CC BY 4.0 (https://creativecommons.org/licenses/by/4.0)
